X:1
T:Clogher Cross
S:Tracin'
M:6/8
L:1/8
R:jig
K:Dmix
D |:GBd gdB|~d3 d2c|~B3 BAG|FAA AFD|
GBd gdB|def ~g3|edc BcA|1 AGF G2D:|2 AGF G af|
|:g2d edB|~d3 def|g2d edB|ABA Aaf|
g2d edB|Gaf ~g3|edc BcA|1 AGF G af:|2 AGF G2 z|
